X: 5175
T: Brinkie's Brae
R: barndance
M: 4/4
K: Dmajor
|:D3 E F3 G|A2 d2 F2 D2|GABG FAFD|E2 e2 c2 A2|
D3 E F3 G|A2 d2 F2 D2|GABd c2 e2|1 d6 A2:|2 d6 de||
f3 a gf ed|B2 d2 A2 d2|B2 cd A2 d2|gfed e2 de|
f3 a gf ed|B2 d2 A2 F2|GABd c2 e2|d6 de|
f3 a gf ed|B2 d2 A2 d2|B2 cd A2 d2|gfed cecA|
D3 E F3 G|A2 d2 F2 D2|GABd c2 e2|d6||

